X: 1800
T: Arabell Ó Mórdha
R: reel
M: 4/4
K: Gmajor
|:GEDE ~G3 A|BAGA BedB|GAAG ABAG|EAAG AcBA|
GEDE ~G3 A|BAGA BedB|GAAG AcBA|1 GEDE GABA:|2 GEDE ~G3 d||
|:~g3 d edBd|gdBd edBd|GAAG ABAG|EAAG AcBA|
[1 ~g3 d edBd|~g3 d ~e3 d|GAAG AcBA|GEDE GABd:|
[2 GEDE ~G3 A|BAGA BedB|GAAG AcBA|GEDE ~G3 A||

